Newaita-dark/mimetypes/64/payment-card-discover.svg

<svg height="64pt" viewBox="0 0 64 64" width="64pt" xmlns="http://www.w3.org/2000/svg" xmlns:xlink="http://www.w3.org/1999/xlink"><linearGradient id="a" gradientUnits="userSpaceOnUse" x1="33.076089" x2="33.076089" y1="52.098742" y2="54.74482975004"><stop offset="0" stop-opacity=".27451"/><stop offset="1" stop-opacity="0"/></linearGradient><linearGradient id="b"><stop offset="0" stop-opacity=".313725"/><stop offset=".222222" stop-opacity=".27451"/><stop offset="1" stop-opacity="0"/></linearGradient><radialGradient id="c" cx="450.90894" cy="189.57936" gradientTransform="matrix(.00000035 -.156265 -.281277 -.0000002 106.907387 123.22154)" gradientUnits="userSpaceOnUse" r="21.166656" xlink:href="#b"/><radialGradient id="d" cx="450.90894" cy="189.57936" gradientTransform="matrix(-.00000035 .156265 .281277 .0000002 -43.401323 -19.024086)" gradientUnits="userSpaceOnUse" r="21.166656" xlink:href="#b"/><radialGradient id="e" cx="450.90894" cy="189.57936" gradientTransform="matrix(-.00000035 -.156265 .281277 -.0000002 -43.401323 123.22154)" gradientUnits="userSpaceOnUse" r="21.166656" xlink:href="#b"/><radialGradient id="f" cx="450.90894" cy="189.57936" gradientTransform="matrix(.00000035 .156265 -.281277 .0000002 106.907383 -19.024088)" gradientUnits="userSpaceOnUse" r="21.166656" xlink:href="#b"/><linearGradient id="g" gradientUnits="userSpaceOnUse" x1="31.753048" x2="31.753048" y1="61.36004350008" y2="3.14612175004"><stop offset="0" stop-color="#bdbdbd"/><stop offset="1" stop-color="#e0e0e0"/></linearGradient><linearGradient id="h"><stop offset="0" stop-color="#ff7043"/><stop offset="1" stop-color="#ffb74d"/></linearGradient><linearGradient id="i" gradientUnits="userSpaceOnUse" x1="31.753048" x2="31.753048" xlink:href="#h" y1="52.098737" y2="12.407427"/><linearGradient id="j" gradientUnits="userSpaceOnUse" x1="31.753056" x2="31.753056" y1="52.09876709502" y2="12.40744378741"><stop offset="0" stop-color="#424242"/><stop offset="1" stop-color="#616161"/></linearGradient><linearGradient id="k" gradientUnits="userSpaceOnUse" x1="33.07609250008" x2="33.07609250008" xlink:href="#h" y1="52.098737" y2="12.407427"/><path d="m9.261719 52.097656h44.984375v2.648438h-44.984375zm0 0" fill="url(#a)"/><path d="m54.246094 52.097656h5.289062v-2.644531h-5.289062zm0 0" fill="url(#c)"/><path d="m9.261719 52.097656h-5.292969v2.648438h5.292969zm0 0" fill="url(#d)"/><path d="m9.261719 52.097656h-5.292969v-2.644531h5.292969zm0 0" fill="url(#e)"/><path d="m54.246094 52.097656h5.289062v2.648438h-5.289062zm0 0" fill="url(#f)"/><path d="m7.9375 12.40625h47.628906c1.460938 0 2.648438 1.1875 2.648438 2.648438v34.398437c0 1.460937-1.1875 2.644531-2.648438 2.644531h-47.628906c-1.460938 0-2.644531-1.183594-2.644531-2.644531v-34.398437c0-1.460938 1.183593-2.648438 2.644531-2.648438zm0 0" fill="url(#g)"/><path d="m58.214844 32.605469c-11.015625 10.53125-29.671875 17.871093-51.375 19.253906.332031.152344.707031.238281 1.097656.238281h47.628906c1.46875 0 2.648438-1.179687 2.648438-2.644531zm0 0" fill="url(#i)"/><path d="m7.9375 12.40625c-1.464844 0-2.644531 1.179688-2.644531 2.648438v.660156c0-1.464844 1.179687-2.644532 2.644531-2.644532h47.628906c1.46875 0 2.648438 1.179688 2.648438 2.644532v-.660156c0-1.46875-1.179688-2.648438-2.648438-2.648438zm0 0" fill="#fff" fill-opacity=".588235"/><path d="m5.292969 48.8125v.640625c0 1.464844 1.179687 2.644531 2.644531 2.644531h47.628906c1.46875 0 2.648438-1.179687 2.648438-2.644531v-.640625c0 1.46875-1.179688 2.648438-2.648438 2.648438h-47.628906c-1.464844 0-2.644531-1.179688-2.644531-2.648438zm0 0" fill-opacity=".235294"/><path d="m63.493937-115.759477h380.994866c11.686384 0 21.185477 9.499093 21.185477 21.185477v275.161223c0 11.686384-9.499093 21.15423-21.185477 21.15423h-380.994866c-11.686384 0-21.15423-9.467846-21.15423-21.15423v-275.161223c0-11.686384 9.467846-21.185477 21.15423-21.185477zm0 0" fill="none" stroke="#212121" stroke-linecap="round" stroke-linejoin="round" stroke-width="3" transform="matrix(.125012 0 0 .125012 0 26.877566)"/><path d="m1760.028798 985.772018c-333.039066 318.394795-897.079699 540.302741-1553.237519 582.109773 10.038411 4.605859 21.375911 7.204036 33.185807 7.204036h1439.980617c44.405209 0 80.071095-35.665886 80.071095-79.952996zm0 0" fill="none" stroke="#212121" stroke-linecap="round" stroke-linejoin="round" stroke-width="11.338583" transform="scale(.0330761)"/><path d="m27.835938 27.835938c-1.707032 0-3.078126 1.34375-3.078126 3.023437 0 1.699219 1.335938 3.019531 3.050782 3.019531.488281 0 .902344-.097656 1.414062-.339844v-1.324218c-.449218.449218-.847656.632812-1.359375.632812-1.136719 0-1.941406-.824218-1.941406-1.996094 0-1.109374.832031-1.984374 1.886719-1.984374.539062 0 .945312.191406 1.414062.648437v-1.324219c-.492187-.253906-.902344-.355468-1.386718-.355468zm-5.332032.035156c-1.019531 0-1.800781.710937-1.800781 1.65625 0 .796875.363281 1.203125 1.421875 1.585937.441406.15625.667969.257813.78125.328125.222656.148438.335938.355469.335938.597656 0 .46875-.371094.816407-.875.816407-.539063 0-.972657-.269531-1.230469-.769531l-.730469.699218c.519531.761719 1.144531 1.101563 2.003906 1.101563 1.171875 0 1.992188-.78125 1.992188-1.898438 0-.917969-.378906-1.335937-1.660156-1.804687-.679688-.25-.878907-.414063-.878907-.726563 0-.363281.355469-.640625.84375-.640625.335938 0 .613281.136719.90625.46875l.589844-.773437c-.484375-.425781-1.0625-.640625-1.699219-.640625zm-8.925781.09375v5.78125h1.648437c.875 0 1.503907-.207032 2.0625-.667969.65625-.542969 1.046876-1.367187 1.046876-2.21875 0-1.703125-1.273438-2.894531-3.101563-2.894531zm5.277344 0v5.78125h1.128906v-5.78125zm16.535156 0 2.453125 5.929687h.609375l2.496094-5.929687h-1.222657l-1.5625 3.882812-1.539062-3.882812zm6.066406 0v5.78125h3.199219v-.976563h-2.070312v-1.5625h1.996093v-.976562h-1.996093v-1.285157h2.070312v-.980468zm3.945313 0v5.78125h1.128906v-2.320313h.144531l1.5625 2.320313h1.386719l-1.820312-2.433594c.847656-.171875 1.316406-.753906 1.316406-1.640625 0-1.082031-.746094-1.707031-2.046875-1.707031zm1.128906.910156h.34375c.703125 0 1.085938.296875 1.085938.859375 0 .582031-.382813.894531-1.101563.894531h-.328125zm-31.828125.070312h.304687c.726563 0 1.171876.128907 1.542969.46875.390625.347657.625.882813.625 1.4375 0 .554688-.234375 1.109376-.625 1.457032-.355469.320312-.816406.460937-1.542969.460937h-.304687zm0 0" fill="url(#j)"/><path d="m32.746094 27.953125c1.644531 0 2.976562 1.332031 2.976562 2.976563 0 1.644531-1.332031 2.976562-2.976562 2.976562-1.644532 0-2.976563-1.332031-2.976563-2.976562 0-1.644532 1.332031-2.976563 2.976563-2.976563zm0 0" fill="url(#k)"/><g fill="none" stroke="#212121"><path d="m841.573188 841.573188c-51.609246 0-93.061981 40.626042-93.061981 91.408595 0 51.373047 40.389845 91.290496 92.235288 91.290496 14.76237 0 27.28086-2.952474 42.751823-10.27461v-40.035547c-13.58138 13.58138-25.627474 19.132031-41.098438 19.132031-34.366797 0-58.695183-24.91888-58.695183-60.348568 0-33.540105 25.155079-59.994272 57.041798-59.994272 16.297656 0 28.579948 5.786849 42.751823 19.604427v-40.035547c-14.880469-7.676432-27.280859-10.747005-41.92513-10.747005zm-161.20508 1.06289c-30.823829 0-54.443621 21.494011-54.443621 50.073959 0 24.092188 10.983203 36.37448 42.988021 47.948178 13.345183 4.723958 20.194923 7.794531 23.619792 9.920313 6.731641 4.48776 10.156511 10.747005 10.156511 18.06914 0 14.171876-11.219401 24.682683-26.454167 24.682683-16.297657 0-29.406641-8.148828-37.201172-23.265495l-22.084506 21.139714c15.707162 23.029297 34.602995 33.303906 60.584766 33.303906 35.429688 0 60.23047-23.619792 60.23047-57.396094 0-27.753256-11.455599-40.389844-50.192058-54.561719-20.549219-7.558334-26.572266-12.51849-26.572266-21.966407 0-10.983203 10.747005-19.368229 25.509375-19.368229 10.156511 0 18.541537 4.133463 27.398959 14.171875l17.832943-23.383594c-14.644271-12.872787-32.122917-19.36823-51.373047-19.36823zm-269.856124 2.834375v174.786461h49.837761c26.454167 0 45.4681-6.259245 62.356251-20.194922 19.840625-16.415756 31.650521-41.334636 31.650521-67.080209 0-51.491147-38.500261-87.51133-93.770574-87.51133zm159.551695 0v174.786461h34.130599v-174.786461zm499.912897 0 74.166147 179.274221h18.423437l75.465236-179.274221h-36.964975l-47.239584 117.390366-46.53099-117.390366zm183.407685 0v174.786461h96.723048v-29.52474h-62.592449v-47.239584h60.348568v-29.52474h-60.348568v-38.854558h62.592449v-29.642839zm119.279949 0v174.786461h34.130599v-70.150782h4.369662l47.239584 70.150782h41.925131l-55.034116-73.575652c25.627475-5.196354 39.79935-22.793099 39.79935-49.601563 0-32.713412-22.556902-51.609246-61.883855-51.609246zm34.130599 27.517058h10.392709c21.257813 0 32.831511 8.975521 32.831511 25.981771 0 17.596745-11.573698 27.044662-33.303907 27.044662h-9.920313zm-962.270324 2.125781h9.211719c21.966406 0 35.429688 3.897266 46.649089 14.171875 11.809896 10.510808 18.895833 26.690365 18.895833 43.460418 0 16.770052-7.085937 33.540104-18.895833 44.050912-10.747006 9.684114-24.682683 13.935677-46.649089 13.935677h-9.211719zm0 0" stroke-width="11.338583" transform="scale(.0330761)"/><path d="m261.943736 8.603647c13.154993 0 23.810226 10.655232 23.810226 23.810226s-10.655233 23.810226-23.810226 23.810226c-13.154994 0-23.810227-10.655232-23.810227-23.810226s10.655233-23.810226 23.810227-23.810226zm0 0" stroke-linecap="round" stroke-linejoin="round" stroke-width="3" transform="matrix(.125012 0 0 .125012 0 26.877566)"/></g></svg>

<?xml version="1.0" encoding="UTF-8"?>
<svg xmlns="http://www.w3.org/2000/svg" xmlns:xlink="http://www.w3.org/1999/xlink" width="64pt" height="64pt" viewBox="0 0 64 64" version="1.1">
<defs>
<linearGradient id="linear0" gradientUnits="userSpaceOnUse" x1="254" y1="233.5" x2="254" y2="254.66667" gradientTransform="matrix(0.125012,0,0,0.125012,1.323041,22.90844)">
<stop offset="0" style="stop-color:rgb(0%,0%,0%);stop-opacity:0.27451;"/>
<stop offset="1" style="stop-color:rgb(0%,0%,0%);stop-opacity:0;"/>
</linearGradient>
<radialGradient id="radial0" gradientUnits="userSpaceOnUse" cx="450.90894" cy="189.57936" fx="450.90894" fy="189.57936" r="21.166656" gradientTransform="matrix(0.000000348341,-0.156265,-0.281277,-0.000000203077,106.907387,123.22154)">
<stop offset="0" style="stop-color:rgb(0%,0%,0%);stop-opacity:0.313725;"/>
<stop offset="0.222222" style="stop-color:rgb(0%,0%,0%);stop-opacity:0.27451;"/>
<stop offset="1" style="stop-color:rgb(0%,0%,0%);stop-opacity:0;"/>
</radialGradient>
<radialGradient id="radial1" gradientUnits="userSpaceOnUse" cx="450.90894" cy="189.57936" fx="450.90894" fy="189.57936" r="21.166656" gradientTransform="matrix(-0.000000348341,0.156265,0.281277,0.000000203077,-43.401323,-19.024086)">
<stop offset="0" style="stop-color:rgb(0%,0%,0%);stop-opacity:0.313725;"/>
<stop offset="0.222222" style="stop-color:rgb(0%,0%,0%);stop-opacity:0.27451;"/>
<stop offset="1" style="stop-color:rgb(0%,0%,0%);stop-opacity:0;"/>
</radialGradient>
<radialGradient id="radial2" gradientUnits="userSpaceOnUse" cx="450.90894" cy="189.57936" fx="450.90894" fy="189.57936" r="21.166656" gradientTransform="matrix(-0.000000348341,-0.156265,0.281277,-0.000000203077,-43.401323,123.22154)">
<stop offset="0" style="stop-color:rgb(0%,0%,0%);stop-opacity:0.313725;"/>
<stop offset="0.222222" style="stop-color:rgb(0%,0%,0%);stop-opacity:0.27451;"/>
<stop offset="1" style="stop-color:rgb(0%,0%,0%);stop-opacity:0;"/>
</radialGradient>
<radialGradient id="radial3" gradientUnits="userSpaceOnUse" cx="450.90894" cy="189.57936" fx="450.90894" fy="189.57936" r="21.166656" gradientTransform="matrix(0.000000348341,0.156265,-0.281277,0.000000203077,106.907383,-19.024088)">
<stop offset="0" style="stop-color:rgb(0%,0%,0%);stop-opacity:0.313725;"/>
<stop offset="0.222222" style="stop-color:rgb(0%,0%,0%);stop-opacity:0.27451;"/>
<stop offset="1" style="stop-color:rgb(0%,0%,0%);stop-opacity:0;"/>
</radialGradient>
<linearGradient id="linear1" gradientUnits="userSpaceOnUse" x1="254" y1="275.83334" x2="254" y2="-189.83333" gradientTransform="matrix(0.125012,0,0,0.125012,0,26.877566)">
<stop offset="0" style="stop-color:rgb(74.117647%,74.117647%,74.117647%);stop-opacity:1;"/>
<stop offset="1" style="stop-color:rgb(87.843137%,87.843137%,87.843137%);stop-opacity:1;"/>
</linearGradient>
<linearGradient id="linear2" gradientUnits="userSpaceOnUse" x1="254" y1="201.75" x2="254" y2="-115.75" gradientTransform="matrix(0.125012,0,0,0.125012,0,26.877566)">
<stop offset="0" style="stop-color:rgb(100%,43.921569%,26.27451%);stop-opacity:1;"/>
<stop offset="1" style="stop-color:rgb(100%,71.764706%,30.196078%);stop-opacity:1;"/>
</linearGradient>
<linearGradient id="linear3" gradientUnits="userSpaceOnUse" x1="960" y1="1575.1182" x2="960" y2="375.1181" gradientTransform="matrix(0.0330761,0,0,0.0330761,0,0)">
<stop offset="0" style="stop-color:rgb(25.882353%,25.882353%,25.882353%);stop-opacity:1;"/>
<stop offset="1" style="stop-color:rgb(38.039216%,38.039216%,38.039216%);stop-opacity:1;"/>
</linearGradient>
<linearGradient id="linear4" gradientUnits="userSpaceOnUse" x1="264.58334" y1="201.75" x2="264.58334" y2="-115.75" gradientTransform="matrix(0.125012,0,0,0.125012,0,26.877566)">
<stop offset="0" style="stop-color:rgb(100%,43.921569%,26.27451%);stop-opacity:1;"/>
<stop offset="1" style="stop-color:rgb(100%,71.764706%,30.196078%);stop-opacity:1;"/>
</linearGradient>
</defs>
<g id="surface1">
<path style=" stroke:none;fill-rule:nonzero;fill:url(#linear0);" d="M 9.261719 52.097656 L 54.246094 52.097656 L 54.246094 54.746094 L 9.261719 54.746094 Z M 9.261719 52.097656 "/>
<path style=" stroke:none;fill-rule:nonzero;fill:url(#radial0);" d="M 54.246094 52.097656 L 59.535156 52.097656 L 59.535156 49.453125 L 54.246094 49.453125 Z M 54.246094 52.097656 "/>
<path style=" stroke:none;fill-rule:nonzero;fill:url(#radial1);" d="M 9.261719 52.097656 L 3.96875 52.097656 L 3.96875 54.746094 L 9.261719 54.746094 Z M 9.261719 52.097656 "/>
<path style=" stroke:none;fill-rule:nonzero;fill:url(#radial2);" d="M 9.261719 52.097656 L 3.96875 52.097656 L 3.96875 49.453125 L 9.261719 49.453125 Z M 9.261719 52.097656 "/>
<path style=" stroke:none;fill-rule:nonzero;fill:url(#radial3);" d="M 54.246094 52.097656 L 59.535156 52.097656 L 59.535156 54.746094 L 54.246094 54.746094 Z M 54.246094 52.097656 "/>
<path style=" stroke:none;fill-rule:nonzero;fill:url(#linear1);" d="M 7.9375 12.40625 L 55.566406 12.40625 C 57.027344 12.40625 58.214844 13.59375 58.214844 15.054688 L 58.214844 49.453125 C 58.214844 50.914062 57.027344 52.097656 55.566406 52.097656 L 7.9375 52.097656 C 6.476562 52.097656 5.292969 50.914062 5.292969 49.453125 L 5.292969 15.054688 C 5.292969 13.59375 6.476562 12.40625 7.9375 12.40625 Z M 7.9375 12.40625 "/>
<path style=" stroke:none;fill-rule:nonzero;fill:url(#linear2);" d="M 58.214844 32.605469 C 47.199219 43.136719 28.542969 50.476562 6.839844 51.859375 C 7.171875 52.011719 7.546875 52.097656 7.9375 52.097656 L 55.566406 52.097656 C 57.035156 52.097656 58.214844 50.917969 58.214844 49.453125 Z M 58.214844 32.605469 "/>
<path style=" stroke:none;fill-rule:nonzero;fill:rgb(100%,100%,100%);fill-opacity:0.588235;" d="M 7.9375 12.40625 C 6.472656 12.40625 5.292969 13.585938 5.292969 15.054688 L 5.292969 15.714844 C 5.292969 14.25 6.472656 13.070312 7.9375 13.070312 L 55.566406 13.070312 C 57.035156 13.070312 58.214844 14.25 58.214844 15.714844 L 58.214844 15.054688 C 58.214844 13.585938 57.035156 12.40625 55.566406 12.40625 Z M 7.9375 12.40625 "/>
<path style=" stroke:none;fill-rule:nonzero;fill:rgb(0%,0%,0%);fill-opacity:0.235294;" d="M 5.292969 48.8125 L 5.292969 49.453125 C 5.292969 50.917969 6.472656 52.097656 7.9375 52.097656 L 55.566406 52.097656 C 57.035156 52.097656 58.214844 50.917969 58.214844 49.453125 L 58.214844 48.8125 C 58.214844 50.28125 57.035156 51.460938 55.566406 51.460938 L 7.9375 51.460938 C 6.472656 51.460938 5.292969 50.28125 5.292969 48.8125 Z M 5.292969 48.8125 "/>
<path style="fill:none;stroke-width:3;stroke-linecap:round;stroke-linejoin:round;stroke:rgb(12.941176%,12.941176%,12.941176%);stroke-opacity:1;stroke-miterlimit:4;" d="M 63.493937 -115.759477 L 444.488803 -115.759477 C 456.175187 -115.759477 465.67428 -106.260384 465.67428 -94.574 L 465.67428 180.587223 C 465.67428 192.273607 456.175187 201.741453 444.488803 201.741453 L 63.493937 201.741453 C 51.807553 201.741453 42.339707 192.273607 42.339707 180.587223 L 42.339707 -94.574 C 42.339707 -106.260384 51.807553 -115.759477 63.493937 -115.759477 Z M 63.493937 -115.759477 " transform="matrix(0.125012,0,0,0.125012,0,26.877566)"/>
<path style="fill:none;stroke-width:11.338583;stroke-linecap:round;stroke-linejoin:round;stroke:rgb(12.941176%,12.941176%,12.941176%);stroke-opacity:1;stroke-miterlimit:4;" d="M 1760.028798 985.772018 C 1426.989732 1304.166813 862.949099 1526.074759 206.791279 1567.881791 C 216.82969 1572.48765 228.16719 1575.085827 239.977086 1575.085827 L 1679.957703 1575.085827 C 1724.362912 1575.085827 1760.028798 1539.419941 1760.028798 1495.132831 Z M 1760.028798 985.772018 " transform="matrix(0.0330761,0,0,0.0330761,0,0)"/>
<path style=" stroke:none;fill-rule:nonzero;fill:url(#linear3);" d="M 27.835938 27.835938 C 26.128906 27.835938 24.757812 29.179688 24.757812 30.859375 C 24.757812 32.558594 26.09375 33.878906 27.808594 33.878906 C 28.296875 33.878906 28.710938 33.78125 29.222656 33.539062 L 29.222656 32.214844 C 28.773438 32.664062 28.375 32.847656 27.863281 32.847656 C 26.726562 32.847656 25.921875 32.023438 25.921875 30.851562 C 25.921875 29.742188 26.753906 28.867188 27.808594 28.867188 C 28.347656 28.867188 28.753906 29.058594 29.222656 29.515625 L 29.222656 28.191406 C 28.730469 27.9375 28.320312 27.835938 27.835938 27.835938 Z M 22.503906 27.871094 C 21.484375 27.871094 20.703125 28.582031 20.703125 29.527344 C 20.703125 30.324219 21.066406 30.730469 22.125 31.113281 C 22.566406 31.269531 22.792969 31.371094 22.90625 31.441406 C 23.128906 31.589844 23.242188 31.796875 23.242188 32.039062 C 23.242188 32.507812 22.871094 32.855469 22.367188 32.855469 C 21.828125 32.855469 21.394531 32.585938 21.136719 32.085938 L 20.40625 32.785156 C 20.925781 33.546875 21.550781 33.886719 22.410156 33.886719 C 23.582031 33.886719 24.402344 33.105469 24.402344 31.988281 C 24.402344 31.070312 24.023438 30.652344 22.742188 30.183594 C 22.0625 29.933594 21.863281 29.769531 21.863281 29.457031 C 21.863281 29.09375 22.21875 28.816406 22.707031 28.816406 C 23.042969 28.816406 23.320312 28.953125 23.613281 29.285156 L 24.203125 28.511719 C 23.71875 28.085938 23.140625 27.871094 22.503906 27.871094 Z M 13.578125 27.964844 L 13.578125 33.746094 L 15.226562 33.746094 C 16.101562 33.746094 16.730469 33.539062 17.289062 33.078125 C 17.945312 32.535156 18.335938 31.710938 18.335938 30.859375 C 18.335938 29.15625 17.0625 27.964844 15.234375 27.964844 Z M 18.855469 27.964844 L 18.855469 33.746094 L 19.984375 33.746094 L 19.984375 27.964844 Z M 35.390625 27.964844 L 37.84375 33.894531 L 38.453125 33.894531 L 40.949219 27.964844 L 39.726562 27.964844 L 38.164062 31.847656 L 36.625 27.964844 Z M 41.457031 27.964844 L 41.457031 33.746094 L 44.65625 33.746094 L 44.65625 32.769531 L 42.585938 32.769531 L 42.585938 31.207031 L 44.582031 31.207031 L 44.582031 30.230469 L 42.585938 30.230469 L 42.585938 28.945312 L 44.65625 28.945312 L 44.65625 27.964844 Z M 45.402344 27.964844 L 45.402344 33.746094 L 46.53125 33.746094 L 46.53125 31.425781 L 46.675781 31.425781 L 48.238281 33.746094 L 49.625 33.746094 L 47.804688 31.3125 C 48.652344 31.140625 49.121094 30.558594 49.121094 29.671875 C 49.121094 28.589844 48.375 27.964844 47.074219 27.964844 Z M 46.53125 28.875 L 46.875 28.875 C 47.578125 28.875 47.960938 29.171875 47.960938 29.734375 C 47.960938 30.316406 47.578125 30.628906 46.859375 30.628906 L 46.53125 30.628906 Z M 14.703125 28.945312 L 15.007812 28.945312 C 15.734375 28.945312 16.179688 29.074219 16.550781 29.414062 C 16.941406 29.761719 17.175781 30.296875 17.175781 30.851562 C 17.175781 31.40625 16.941406 31.960938 16.550781 32.308594 C 16.195312 32.628906 15.734375 32.769531 15.007812 32.769531 L 14.703125 32.769531 Z M 14.703125 28.945312 "/>
<path style=" stroke:none;fill-rule:nonzero;fill:url(#linear4);" d="M 32.746094 27.953125 C 34.390625 27.953125 35.722656 29.285156 35.722656 30.929688 C 35.722656 32.574219 34.390625 33.90625 32.746094 33.90625 C 31.101562 33.90625 29.769531 32.574219 29.769531 30.929688 C 29.769531 29.285156 31.101562 27.953125 32.746094 27.953125 Z M 32.746094 27.953125 "/>
<path style="fill:none;stroke-width:11.338583;stroke-linecap:butt;stroke-linejoin:miter;stroke:rgb(12.941176%,12.941176%,12.941176%);stroke-opacity:1;stroke-miterlimit:4;" d="M 841.573188 841.573188 C 789.963942 841.573188 748.511207 882.19923 748.511207 932.981783 C 748.511207 984.35483 788.901052 1024.272279 840.746495 1024.272279 C 855.508865 1024.272279 868.027355 1021.319805 883.498318 1013.997669 L 883.498318 973.962122 C 869.916938 987.543502 857.870844 993.094153 842.39988 993.094153 C 808.033083 993.094153 783.704697 968.175273 783.704697 932.745585 C 783.704697 899.20548 808.859776 872.751313 840.746495 872.751313 C 857.044151 872.751313 869.326443 878.538162 883.498318 892.35574 L 883.498318 852.320193 C 868.617849 844.643761 856.217459 841.573188 841.573188 841.573188 Z M 680.368108 842.636078 C 649.544279 842.636078 625.924487 864.130089 625.924487 892.710037 C 625.924487 916.802225 636.90769 929.084517 668.912508 940.658215 C 682.257691 945.382173 689.107431 948.452746 692.5323 950.578528 C 699.263941 955.066288 702.688811 961.325533 702.688811 968.647668 C 702.688811 982.819544 691.46941 993.330351 676.234644 993.330351 C 659.936987 993.330351 646.828003 985.181523 639.033472 970.064856 L 616.948966 991.20457 C 632.656128 1014.233867 651.551961 1024.508476 677.533732 1024.508476 C 712.96342 1024.508476 737.764202 1000.888684 737.764202 967.112382 C 737.764202 939.359126 726.308603 926.722538 687.572144 912.550663 C 667.022925 904.992329 660.999878 900.032173 660.999878 890.584256 C 660.999878 879.601053 671.746883 871.216027 686.509253 871.216027 C 696.665764 871.216027 705.05079 875.34949 713.908212 885.387902 L 731.741155 862.004308 C 717.096884 849.131521 699.618238 842.636078 680.368108 842.636078 Z M 410.511984 845.470453 L 410.511984 1020.256914 L 460.349745 1020.256914 C 486.803912 1020.256914 505.817845 1013.997669 522.705996 1000.061992 C 542.546621 983.646236 554.356517 958.727356 554.356517 932.981783 C 554.356517 881.490636 515.856256 845.470453 460.585943 845.470453 Z M 570.063679 845.470453 L 570.063679 1020.256914 L 604.194278 1020.256914 L 604.194278 845.470453 Z M 1069.976576 845.470453 L 1144.142723 1024.744674 L 1162.56616 1024.744674 L 1238.031396 845.470453 L 1201.066421 845.470453 L 1153.826837 962.860819 L 1107.295847 845.470453 Z M 1253.384261 845.470453 L 1253.384261 1020.256914 L 1350.107309 1020.256914 L 1350.107309 990.732174 L 1287.51486 990.732174 L 1287.51486 943.49259 L 1347.863428 943.49259 L 1347.863428 913.96785 L 1287.51486 913.96785 L 1287.51486 875.113292 L 1350.107309 875.113292 L 1350.107309 845.470453 Z M 1372.66421 845.470453 L 1372.66421 1020.256914 L 1406.794809 1020.256914 L 1406.794809 950.106132 L 1411.164471 950.106132 L 1458.404055 1020.256914 L 1500.329186 1020.256914 L 1445.29507 946.681262 C 1470.922545 941.484908 1485.09442 923.888163 1485.09442 897.079699 C 1485.09442 864.366287 1462.537518 845.470453 1423.210565 845.470453 Z M 1406.794809 872.987511 L 1417.187518 872.987511 C 1438.445331 872.987511 1450.019029 881.963032 1450.019029 898.969282 C 1450.019029 916.566027 1438.445331 926.013944 1416.715122 926.013944 L 1406.794809 926.013944 Z M 444.524485 875.113292 L 453.736204 875.113292 C 475.70261 875.113292 489.165892 879.010558 500.385293 889.285167 C 512.195189 899.795975 519.281126 915.975532 519.281126 932.745585 C 519.281126 949.515637 512.195189 966.285689 500.385293 976.796497 C 489.638287 986.480611 475.70261 990.732174 453.736204 990.732174 L 444.524485 990.732174 Z M 444.524485 875.113292 " transform="matrix(0.0330761,0,0,0.0330761,0,0)"/>
<path style="fill:none;stroke-width:3;stroke-linecap:round;stroke-linejoin:round;stroke:rgb(12.941176%,12.941176%,12.941176%);stroke-opacity:1;stroke-miterlimit:4;" d="M 261.943736 8.603647 C 275.098729 8.603647 285.753962 19.258879 285.753962 32.413873 C 285.753962 45.568867 275.098729 56.224099 261.943736 56.224099 C 248.788742 56.224099 238.133509 45.568867 238.133509 32.413873 C 238.133509 19.258879 248.788742 8.603647 261.943736 8.603647 Z M 261.943736 8.603647 " transform="matrix(0.125012,0,0,0.125012,0,26.877566)"/>
</g>
</svg>
